X:18966
T:Xiraldilla (CT 065)
R:Xiraldilla
C:Tradicional
S:Música Tradicional Asturiana, (C) Tello & Tito. Asturies, 2001.
S:http://pagina.de/MusTradAst <telloytito@asturies.org>
N:Canción de Ronda, dictada por Iluminada y Aurelia Martínez Viescas, de treinta y treinta y cinco años, respectivamente, de Llanuces, ayuntamiento de Riosa.
O:Llanuces (Riosa)
A:Asturies
Z:Cancioneru de Torner 065
M:3/4
L:1/8
Q:1/4=100
W:Si por beber nuna fuente
W:dejaste secarse otra,
W:amar para aborrecer
W:es una inorancia loca.
K:C
GA Bc d>e|d2 G2 ee|(d>c) B2 de|(d3/2(3c/4d/4c/4 B2) z2|
GA Bc d>e|(d2 G2) Ac|B(A/G/) A2 Bc|(B3/2(3A/4G/4A/4 G2) z2||


